svg/fluentui-system-icons/ic_fluent_document_table_search_24_regular.svg

<svg width="24" height="25" viewBox="0 0 24 25" fill="none" xmlns="http://www.w3.org/2000/svg">
<path d="M15.25 12C16.2165 12 17 12.7835 17 13.75V17.75C17 18.7165 16.2165 19.5 15.25 19.5H10.4749L10.4253 19.4504C10.7931 18.7126 11 17.8805 11 17C11 15.8226 10.63 14.7316 10 13.8369V13.5H9.74284C9.2826 12.9427 8.71468 12.4776 8.07094 12.1366C8.27974 12.0486 8.50919 12 8.75 12H15.25ZM11.5 16.5V18H15.25C15.3881 18 15.5 17.8881 15.5 17.75V16.5H11.5ZM15.5 15V13.75C15.5 13.6119 15.3881 13.5 15.25 13.5H11.5V15H15.5ZM18 21H11.9749L12.4874 21.5126C12.7654 21.7905 12.9303 22.1387 12.9822 22.5H18C19.104 22.5 20 21.604 20 20.5V10.328C20 9.798 19.789 9.289 19.414 8.914L13.585 3.086C13.57 3.07105 13.5531 3.05808 13.5363 3.0452C13.5238 3.03567 13.5115 3.0262 13.5 3.016C13.429 2.952 13.359 2.889 13.281 2.836C13.2557 2.81894 13.2281 2.80548 13.2005 2.79207C13.1845 2.78426 13.1685 2.77647 13.153 2.768C13.1363 2.75859 13.1197 2.74897 13.103 2.73933C13.0488 2.70797 12.9944 2.67648 12.937 2.652C12.74 2.57 12.528 2.529 12.313 2.514C12.2933 2.51274 12.2738 2.51008 12.2542 2.50741C12.2271 2.50371 12.1999 2.5 12.172 2.5H6C4.896 2.5 4 3.396 4 4.5V11.707C4.47683 11.5722 4.97999 11.5 5.5 11.5V4.5C5.5 4.225 5.724 4 6 4H12V8.5C12 9.604 12.896 10.5 14 10.5H18.5V20.5C18.5 20.775 18.276 21 18 21ZM17.378 9H14C13.724 9 13.5 8.775 13.5 8.5V5.121L17.378 9ZM5.5 21.5C6.47187 21.5 7.37179 21.1919 8.1074 20.6681L10.7197 23.2803C11.0126 23.5732 11.4874 23.5732 11.7803 23.2803C12.0732 22.9874 12.0732 22.5126 11.7803 22.2197L9.16806 19.6074C9.69191 18.8718 10 17.9719 10 17C10 14.5147 7.98528 12.5 5.5 12.5C3.01472 12.5 1 14.5147 1 17C1 19.4853 3.01472 21.5 5.5 21.5ZM5.5 20C3.84315 20 2.5 18.6569 2.5 17C2.5 15.3431 3.84315 14 5.5 14C7.15685 14 8.5 15.3431 8.5 17C8.5 18.6569 7.15685 20 5.5 20Z" fill="#212121"/>
</svg>

<svg xmlns="http://www.w3.org/2000/svg" width="24" height="25"><path d="M15.25 12c.966 0 1.75.784 1.75 1.75v4a1.75 1.75 0 0 1-1.75 1.75h-4.775l-.05-.05c.368-.737.575-1.57.575-2.45 0-1.177-.37-2.268-1-3.163V13.5h-.257a5.523 5.523 0 0 0-1.672-1.363c.209-.088.438-.137.679-.137h6.5Zm-3.75 4.5V18h3.75a.25.25 0 0 0 .25-.25V16.5h-4Zm4-1.5v-1.25a.25.25 0 0 0-.25-.25H11.5V15h4Zm2.5 6h-6.025l.512.513c.278.277.443.626.495.987H18a2 2 0 0 0 2-2V10.328a2 2 0 0 0-.586-1.414l-5.829-5.828a.491.491 0 0 0-.049-.04.63.63 0 0 1-.036-.03 2.072 2.072 0 0 0-.219-.18.652.652 0 0 0-.08-.044l-.048-.024-.05-.029c-.054-.031-.109-.063-.166-.087a1.977 1.977 0 0 0-.624-.138.56.56 0 0 1-.059-.007.605.605 0 0 0-.082-.007H6a2 2 0 0 0-2 2v7.207a5.5 5.5 0 0 1 1.5-.207v-7A.5.5 0 0 1 6 4h6v4.5a2 2 0 0 0 2 2h4.5v10a.5.5 0 0 1-.5.5Zm-.622-12H14a.5.5 0 0 1-.5-.5V5.121L17.378 9ZM5.5 21.5a4.48 4.48 0 0 0 2.607-.832l2.613 2.612a.75.75 0 1 0 1.06-1.06l-2.612-2.613A4.5 4.5 0 1 0 5.5 21.5Zm0-1.5a3 3 0 1 1 0-6 3 3 0 0 1 0 6Z"/></svg>
